X:148
T:Liverpool Hornpipe, The
R:hornpipe
H:Usually played in D, #145.  This is Mrs. Crotty's version.
D:Edel Fox
Z:id:hn-hornpipe-148
M:C|
L:1/8
K:G
dc | BGBd g2ab | c'd'c'a gedB | c2ec B2dB | AGAB cedc |
BGBd g2ab | c'd'c'a gedc | BdBd c'afa |1 g2gf ge :|2 g2gf g2 ||
|: de | g2gg f2ff | edef gedB | c2ec B2dB | AGAB cedc |
BGBd g2ab | c'd'c'a gedc | BdBd c'afa |1 g2gf g2 :|2 g2gf ge ||

